X:1
T:Title
%%score 1 { ( 2 5 ) | ( 3 4 ) }
L:1/8
Q:1/4=92
M:4/4
K:F
V:1 treble nm="Singstimme\nVoice"
V:2 treble nm="Pianoforte"
V:5 treble 
V:3 bass 
V:4 bass 
V:1
"^Andante" z8 | z8 | z8 |!p! z2 c3/2 B/ A2 G2 | z2 A c B3/2 A/ G2 | z A B3/2 A/ B3/2 B/ c3/2 c/ | %6
!<(! d e f g!<)! a!>(! g f!>)! e |!<(! d e f!<)!!>(! g!>)! a2 z2 | z d g3/2 d/ d d d c | c2 B2 z4 | %10
 z4 z2 z c | c f2 c _d d _e3/2 d/ | _d c2 c _a3/2 g/ f e | d e f g g g a a | %14
!p!!<(! a a!<)! b b b2!p! (a/g/) (f/e/) | e3/2 d/ d d f f e e | g2 f2 z4 | z8 | z8 | z8 | z8 | z8 | %22
 z8 | z8 | z8 |] %25
V:2
!p! ([FA]2!<(! [EG][FA] [GB][FA][GB]!<)!!>(![Ec])!>)! | %1
!<(! ([FA]2 [EG][FA]!<)!!>(! [GB][FA][GB]!>)![Ec]) | %2
!<(! ([FA]2 [E^G][FA]!<)!!>(! [=GB][FA][GB][Ec])!>)! | %3
 ([FA]2 [EG][FA]!<(! [GB][FA][GB]!<)!!>(![Ec])!>)! | %4
!<(! ([FA]2 [EG][FA]!<)!!>(! [GB][FA][GB]!>)![Ec]) | ([FA]2 [EB]2 [FB]2 [_Ec]2) | %6
 (de!<(!f!<)!g!>(! [fa][eg][df][^ce])!>)! | %7
!<(! ([FAd][Ae][df]!<)!!>(![eg] [dfa])!>)! z!<(! [d^fa]2!<)! |!<(! [dgb]4!<)! z (G/B/ [Gc])[^FA] | %9
 ([^FA]2 [GB]2) z!<(! (G/[GB]/)!<)! ([Gc][^FA]) |!>(! ([^FA]2!>)! [GB]2) z (B/[Gd]/) ([Gc][Gc]) | %11
 [Fc]3 [Fc] ([_A_d]2 [B_e]2) | [B_d]3 [_Ac] ([FA]/c/[Ac]/f/) ([FA]/f/[Gc]/e/) | %13
!<(! ([Bd][df][ce]!<)!!>(![eg]) ([cg][cg][ca]!>)![ca]) | %14
!p!!<(! ([cfa][cfa]!<)![dfb]!>(![dfb])!>)!!p! [eb]2 z ([fa]/[eg]/) | %15
 ([eg][df]) z ([df] [fd'][fd'][ec'][ec']) | %16
 [ec'][ec'] [ca]2 z!<(! ([cfa]/[fac']/)!<)!!>(! ([fac'][cegb])!>)! | %17
!<(! [cegb][cegb]/[cegb]/ [cfa][cfac']!<)!!>(! ([fac'][fac'][egb]!>)![egb]) | %18
 ([fa][eg] [df])([fa]/[gb]/) [fa]([fa]/[gb]/) [fa]([fa]/[gb]/) | %19
!p! [fa]!<(![fa][fa][fa]!<)!!>(! [fa][fa]!>)!!p! (c/e/g/b/) | %20
!<(! [fa][fa]!<)!!mp!!<(! ([eg]/[fa]/[gb]/[fa]/)!<)!!>(! ([eg]/[df]/[ce]/[Bd]/ [Ac]/[GB]/[FA]/[EG]/)!>)! | %21
!<(! (F/c/A/c/)!<)!!>(! (B/c/e/c/)!>)!!<(! (A/c/B/c/)!<)!!>(! (B/c/e/c/)!>)! | %22
!<(! (A/c/A/c/)!<)!!>(! (B/c/e/c/)!>)!!<(! (A/c/B/c/)!<)!!>(! (B/c/e/c/)!>)! | %23
 A2 z2!p! [FAcf]2 z2 | [FAcf]2 z2 z4 |] %25
V:3
 z (C2 =B, C4) | z (C2 =B, C4) | z (C2 =B, C4) | z (C2 =B, C4) | z (C2 =B, C4) | z (C2 ^C2 D2 _E) | %6
 [B,D]4 [A,^C]4 | [D,A,D]3 [C,C] [B,,B,]2 [A,,A,]2 | [G,,G,]4 z (D/G,/) [D,A,][D,C] | %9
 ([D,C]2 [G,D]2) z (D/[G,B,]/) [D,A,][D,C] | ([D,C]2 [G,D]2) z (D/[G,B,]/) ([E,G,][E,C]) | %11
 (F,/G,/_A,/B,/ C)(A,/B,/) (B,2 G,2) | C2 C2 F,2 z2 |[K:treble] (G=BcG) (CEFF) | %14
 (A,FB,G) C2 z [^CGB] | ([^CGB][DFB]) z [DB] [B,B][B,A][CG][CG] | %16
 [CG][CG][K:bass] [F,F]2 z (A,/C/) CC | CC/C/ CC CCCC | [F,C][F,C][F,C][F,C] [F,C][F,C][F,C][F,C] | %19
 [F,C][F,C][F,C][F,C] [F,C][F,C][F,C][F,C] | [F,C][F,C][F,C][F,C] [F,C][F,C][F,C][F,C] | %21
 [F,C]2 [F,C]2 [F,C]2 [F,C]2 | [F,C]2 [F,C]2 [F,C]2 [F,C]2 | [F,C]2 z2 [F,C]2 z2 | [F,C]2 z2 z4 |] %25
V:4
 F,4- F,2 C,2 | F,4- F,2 C,2 | F,4- F,2 C,2 | F,4- F,2 C,2 | F,4- F,2 C,2 | F,2 ^F,2 G,2 A,2 | x8 | %7
 x8 | x4 D2 x2 | x8 | x8 | x8 | C4 x4 |[K:treble] x8 | x8 | x8 | x2[K:bass] x6 | x8 | x8 | x8 | %20
 x8 | x8 | x8 | x8 | x8 |] %25
V:5
 x8 | x8 | x8 | x8 | x8 | x8 | G4 A4 | x8 | x8 | x8 | x8 | x8 | x8 | x8 | x8 | x8 | x8 | x8 | x8 | %19
 x8 | x8 | x8 | x8 | x8 | x8 |] %25

